X: 27558
T: Monea Castle
R: strathspey
M: 4/4
K: Amajor
F|E<CB,{C/B,/}A, C<EE>C|D>EF<A G>A Bc/d/|c>BA>E F<DA>F|E<CA>C B,3 F|
E<CB,{C/B,/}A, C<EE>C|D>EF<A G>A Bc/d/|c>BA>E F<DA>F|E<CB,>A, A,3||
d|c2 c/B/c/d/ ecBA|d2 d/c/B/A/ G<BE>A|F<DA>F E<Ca>f|e<cd>e B2 {c/B}A>F|
E<CB,{C/B,/}A, C<EE>C|D>EF<A G>A Bc/d/|c>BA>E F<DA>F|E<CB,>A, A,3||

